X:63
T:Quadrill. CJF.063
R:Quadrille
S:C.J.Fox MS, 1829/33, Beverley,E.Yorks.
N:The 1st bar is split in two with a bar line in the MS. – PJH.
B:Kidson Coll.Mitchell Lib.M1805
O:England
A:East Yorkshire
Z:vmp.P J Headford 2000 & 2008
M:6/8
L:1/8
Q:3/8=90
K:G
bc’^c’d’2g|a2bg2g/g/|c’2c’ ac’b|a/g/f/e/d/c/ dfa|!
bc’^c’d’2g|a2bg2g/g/|c’2g fd’f|a3g2||!
A/A/|Aff fed|d^ccc2A/A/|Agg gfe|eddd2d/d/|!
d’dd’ d’ed’|d’fd’ d’fd’|f’2f’ e’d’e’|d’c'” D.C.”e’ d’c’a||!
B/B/|g2g gfe|e^ddd2b|c’2b^a2b|agfe2B|!
g2g gfe|e^ddd2B|G2G GFE” D.C.”|B2B2|]

